X: 1656
T: O'Connor's Fancy
M:4/4
L:1/8
B:O'Neill's 1656
N:"collected by J.O'Neill"
K:D
A>G \
| F>AD>D D>FD>D | C>DE>F G2 F>E | F>AB>c d>AB>G | F2E2E2 A>G |
| F>AD>DD>FE>D | C>DE>F G2F>E | F>AB>c d>AB>G | F2D2D2 :|
|: c2 \
| d>AF>A d>fe>d | e>dc>d e>fg>e | f>de>c d>fe>d | c2A2A2 d>c |
| B>AG>A d>fe>d | e>dc>A B>AG>F | G>AB>c d>AB>G | F2D2D2 :|


